packages/tokens/icons/heart/size32Px.svg

<svg viewBox="0 0 32 32" fill="none" xmlns="http://www.w3.org/2000/svg" width="1em" height="1em"><path d="M17.1765 6.52576L17.1766 6.52568C20.135 3.68614 24.7655 3.85149 27.526 6.89837C30.2941 9.95354 30.1305 14.7457 27.164 17.5918L27.1638 17.592L27.1346 17.6201L27.1344 17.6202L16 28.307L4.86593 17.6202L4.86577 17.6201L4.83657 17.592L4.83631 17.5918C1.86946 14.7456 1.70584 9.95354 4.47392 6.89837C7.23449 3.85149 11.865 3.68614 14.8234 6.52568L14.8235 6.52576L15.6538 7.32237L16 7.65446L16.3461 7.32237L17.1765 6.52576Z" stroke="currentColor"/></svg>

<svg xmlns="http://www.w3.org/2000/svg" fill="none" viewBox="0 0 32 32" width="1em" height="1em"><path stroke="currentColor" d="M17.177 6.526c2.958-2.84 7.588-2.675 10.349.372 2.768 3.056 2.605 7.848-.362 10.694l-.03.028L16 28.307 4.866 17.62l-.03-.028c-2.967-2.846-3.13-7.638-.362-10.694 2.76-3.047 7.391-3.212 10.35-.372l.83.796.346.332.346-.332.83-.796Z"/></svg>
